Adwaita++/apps/scalable/scribus.svg

<svg enable-background="new" height="128" viewBox="0 0 128 128" width="128" xmlns="http://www.w3.org/2000/svg" xmlns:xlink="http://www.w3.org/1999/xlink">
  <linearGradient id="linearGradient623" gradientTransform="matrix(.12170906 0 0 .22862363 3.169089 -3.588061)" gradientUnits="userSpaceOnUse" x1="271.992" x2="412.395" y1="72.341" y2="430.215">
    <stop offset="0" stop-color="#b9e5ff" stop-opacity=".419643"/>
    <stop offset="1" stop-color="#fff"/>
  </linearGradient>
  <linearGradient id="linearGradient2290" gradientUnits="userSpaceOnUse" x1="1.908" x2="64.345" y1="175.188" y2="277.924">
    <stop offset="0" stop-color="#66b8ff"/>
    <stop offset="1" stop-color="#00507a"/>
  </linearGradient>
  <g transform="translate(.000062 -173)">
    <path d="m123.99993 237a59.999995 59.999995 0 0 1 -59.999985 60 59.999995 59.999995 0 0 1 -60.0000069-60 59.999995 59.999995 0 0 1 60.0000069-59.99999 59.999995 59.999995 0 0 1 59.999985 59.99999z" fill="#deddda"/>
    <rect fill="#d5d3cf" height="114" rx="56" width="112" x="8" y="179"/>
    <path d="m123.99993 235a59.999995 59.999995 0 0 1 -59.999985 59.99999 59.999995 59.999995 0 0 1 -60.0000069-59.99999 59.999995 59.999995 0 0 1 60.0000069-60 59.999995 59.999995 0 0 1 59.999985 60z" fill="#f6f5f4"/>
    <circle cx="64" cy="235" fill="url(#linearGradient2290)" r="54"/>
    <g fill="#fff" fill-opacity=".851" transform="matrix(2.6150613 -.28982902 .28982902 2.6150613 20.183828 257.95438)">
      <path d="m29.1-14.941c-.21-.21-.548-.219-.768-.02-1.137 1.021-7.112 6.208-13.149 8.04l-.065.02c-.157.048-.285.162-.35.312-.065.151-.061.322.011.469l.03.061c0 .0001.0001.002.0001.002.021.043.891 1.86 1 4.421.07 1.592-.161 3.122-.684 4.551-.187.015-.37.093-.513.236-.319.319-.319.835 0 1.154s.835.319 1.154 0c.184-.184.261-.435.232-.674l5.849-5.849c.146-.146.2-.36.139-.557-.207-.68-.022-1.415.482-1.919.364-.364.847-.564 1.362-.564s.999.2 1.362.564c.364.364.564.847.564 1.362 0 .514-.2.998-.564 1.362s-.847.564-1.361.564c-.191 0-.379-.028-.559-.082-.197-.06-.411-.006-.557.139l-5.848 5.849c-.24-.029-.491.048-.675.232-.319.319-.318.835 0 1.154.319.319.835.319 1.154 0 .143-.143.221-.326.236-.513 1.26-.462 2.601-.696 3.988-.696.174 0 .352.004.529.011 2.569.106 4.442.999 4.459 1.01l.059.029c.078.038.162.057.246.057.076 0 .151-.015.223-.046.15-.065.264-.193.312-.35l.02-.065c1.834-6.04 7.02-12.01 8.04-13.149.198-.221.189-.558-.021-.768l-6.344-6.345"/>
      <path d="m116.0918 47.828125a54 54 0 0 0 -.06055-.273437 54 54 0 0 0 -1.70117-5.121094 54 54 0 0 0 -2.20508-4.927735 54 54 0 0 0 -2.68555-4.68164 54 54 0 0 0 -3.14062-4.390625 54 54 0 0 0 -3.5625-4.056641 54 54 0 0 0 -1.12305-1.044922c-.01338.001112-.02372-.013202-.03711-.011719-.38703.042895-.74189.238618-.98633.541016l-6.455074 8.064453c-.506901.633266-.404751 1.559506.228515 2.066407l18.847659 15.082031c.30501.244149.69305.357348 1.08008.314453.38702-.042895.74217-.237955.98632-.542969z" transform="matrix(.37776002 .0418674 -.0418674 .37776002 -4.067848 -32.937415)"/>
    </g>
    <path d="m64.03349 180.88254a54 54 0 0 0 -54 54 54 54 0 0 0 .0415 1.1709 54 54 0 0 1 53.9585-53.1709 54 54 0 0 1 53.9585 52.82813 54 54 0 0 0 .0415-.82813 54 54 0 0 0 -54.00001-54z" opacity=".1"/>
  </g>
  <path d="m56.227848 100.67519s-14.571354-22.478052-3.261554-45.189332c8.988557-18.25645 11.778289-35.06542 4.467374-46.9581089-12.984023 1.5775099-24.286961 8.0451299-29.887201 13.5681489-8.482918 8.0575-12.541958 16.50477-14.379968 22.40977 2.45068 29.11777 43.265571 56.780382 43.061349 56.169522z" fill="url(#linearGradient623)" fill-opacity=".75" fill-rule="evenodd"/>
</svg>

<svg xmlns="http://www.w3.org/2000/svg" xmlns:xlink="http://www.w3.org/1999/xlink" style="enable-background:new" width="128" height="128" version="1.0" viewBox="0 0 128 128">
 <title id="title4162">
  Adwaita Icon Template
 </title>
 <defs>
  <linearGradient id="linearGradient950">
   <stop style="stop-color:#9a9996" id="stop946" offset="0"/>
   <stop style="stop-color:#77767b" id="stop948" offset="1"/>
  </linearGradient>
  <linearGradient id="linearGradient1001" x1="1660.857" x2="1662.99" y1="806.297" y2="812.882" gradientTransform="matrix(1.8293937,-0.81599442,0.81599442,1.8293937,-3645.9624,100.02949)" gradientUnits="userSpaceOnUse" xlink:href="#linearGradient950"/>
  <clipPath id="clipPath5154" clipPathUnits="userSpaceOnUse">
   <circle cx="128" cy="924.362" r="109.647" style="fill:url(#radialGradient5158)"/>
  </clipPath>
  <clipPath id="clipPath977" clipPathUnits="userSpaceOnUse">
   <circle cx="128" cy="924.362" r="109.647" style="fill:url(#radialGradient5158)"/>
  </clipPath>
  <clipPath id="clipPath4688" clipPathUnits="userSpaceOnUse">
   <path d="m 106.42383,889.60156 c -2.2448,-0.0524 -4.09304,1.75264 -4.09375,3.99805 v 32.64453 32.64453 c -4e-5,3.07923 3.33305,5.004 6,3.46485 l 28.26953,-16.32227 28.27148,-16.32227 c 2.66559,-1.54001 2.66559,-5.38772 0,-6.92773 l -28.27148,-16.32227 -28.26953,-16.32226 c -0.58054,-0.3353 -1.23603,-0.51932 -1.90625,-0.53516 z" style="fill:url(#radialGradient4692);stroke:#a7003f;stroke-linecap:round;stroke-linejoin:round"/>
  </clipPath>
  <clipPath id="clipPath4564" clipPathUnits="userSpaceOnUse">
   <circle style="fill:url(#radialGradient4568)" cx="128" cy="924.362" r="109.647"/>
  </clipPath>
  <clipPath id="clipPath6215" clipPathUnits="userSpaceOnUse">
   <path d="m 105.17325,806.18572 c -3.06859,0.56361 -6.11393,1.24721 -9.129005,2.04923 -3.838255,1.06506 -7.62084,2.32142 -11.333578,3.76438 -3.712189,1.44307 -7.34989,3.07087 -10.899472,4.87732 -3.549153,1.80656 -7.005749,3.78947 -10.35684,5.94129 -3.351877,2.15253 -6.593991,4.47137 -9.714191,6.94783 -3.119992,2.47544 -6.114241,5.10535 -8.971529,7.87988 -0.367219,0.38909 -0.731819,0.78065 -1.093777,1.17464 2.60205,17.85956 16.832359,40.03752 30.863064,55.74236 -4.76734,8.84435 -7.265993,18.73329 -7.272057,28.78068 0.02104,2.87431 0.246096,5.7435 0.673482,8.58593 -20.257302,-9.18513 -43.077023,-26.53494 -52.798465,-47.36396 -0.440667,1.15171 -0.863474,2.31018 -1.268271,3.47498 -1.176789,3.80495 -2.162562,7.66637 -2.953625,11.56979 -0.79154,3.90311 -1.3874065,7.84335 -1.7853678,11.80598 -0.39733,3.96334 -0.5961891,7.94407 -0.5958321,11.92728 -4.394e-4,2.81936 0.098928,5.63785 0.2979155,8.45018 0.282275,3.97319 0.763088,7.92978 1.4406374,11.85493 0.625626,3.51826 1.408798,7.00668 2.347153,10.45473 16.778133,6.68355 43.114514,5.45001 63.748015,1.14301 6.818545,11.02763 16.987182,19.58379 29.018153,24.41667 -18.071844,12.93645 -44.490188,24.02095 -67.37308,22.03245 1.384097,1.665 2.813203,3.2921 4.285735,4.8794 2.774977,2.8571 5.691103,5.5737 8.737453,8.1395 3.046107,2.5658 6.218619,4.9777 9.505651,7.2266 3.287242,2.2488 6.684891,4.3319 10.180217,6.2413 3.495379,1.9096 7.084075,3.6433 10.752641,5.1944 3.66896,1.5509 7.413193,2.9174 11.218668,4.0942 1.438565,0.3959 2.884421,0.7648 4.336807,1.1066 14.138748,-11.1844 26.206378,-34.5828 32.780368,-54.56406 12.95816,-0.38251 25.45395,-4.90132 35.65955,-12.89544 2.15922,22.12638 -1.46693,50.5581 -14.64692,69.3832 3.06859,-0.5636 6.11393,-1.2473 9.129,-2.0493 3.83826,-1.0651 7.62084,-2.3214 11.33358,-3.7644 3.71219,-1.4431 7.34989,-3.0709 10.89947,-4.8773 3.54915,-1.8066 7.00575,-3.7895 10.35684,-5.9413 3.35188,-2.1525 6.59399,-4.4714 9.71419,-6.9478 3.11999,-2.4754 6.11424,-5.1054 8.97153,-7.8799 0.36722,-0.3891 0.73182,-0.7806 1.09378,-1.1746 -2.60204,-17.85957 -16.83236,-40.03755 -30.86307,-55.74238 4.76735,-8.84435 7.266,-18.7333 7.27207,-28.78069 -0.021,-2.8743 -0.24611,-5.74349 -0.6735,-8.58592 20.25731,9.18513 43.07704,26.53494 52.79848,47.36396 0.44067,-1.15171 0.86347,-2.31018 1.26827,-3.47499 1.17679,-3.80495 2.16256,-7.66636 2.95362,-11.56978 0.79154,-3.90311 1.38741,-7.84335 1.78537,-11.80598 0.39733,-3.96334 0.59619,-7.94408 0.59583,-11.92729 4.4e-4,-2.81936 -0.0989,-5.63784 -0.29791,-8.45017 -0.28228,-3.97319 -0.76309,-7.92978 -1.44064,-11.85493 -0.62776,-3.53416 -1.41449,-7.03823 -2.35779,-10.50154 -20.56165,-7.32804 -45.89823,-4.79548 -63.74906,-1.11372 -6.81835,-11.01918 -16.98234,-19.56874 -29.00647,-24.39915 18.07184,-12.93645 44.49019,-24.02091 67.37307,-22.03241 -1.38409,-1.66502 -2.8132,-3.2921 -4.28573,-4.87944 -2.77498,-2.85712 -5.6911,-5.57368 -8.73745,-8.13949 -3.04611,-2.56581 -6.21862,-4.97769 -9.50565,-7.22659 -3.28724,-2.24885 -6.68489,-4.3319 -10.18022,-6.24135 -3.49538,-1.90963 -7.08407,-3.64325 -10.75264,-5.19438 -3.66896,-1.55092 -7.41319,-2.91736 -11.21867,-4.09421 -1.42662,-0.39262 -2.86041,-0.75869 -4.30063,-1.09804 -14.14688,11.18369 -26.2293,34.57475 -32.8107,54.55552 -12.96018,0.38127 -25.4582,4.90015 -35.665394,12.89544 -2.15922,-22.12637 1.466931,-50.55807 14.646924,-69.38315 z" style="fill:url(#radialGradient6219)"/>
  </clipPath>
  <linearGradient id="linearGradient619">
   <stop style="stop-color:#66b8ff" id="stop620" offset="0"/>
   <stop style="stop-color:#00507a" id="stop621" offset="1"/>
  </linearGradient>
  <linearGradient id="linearGradient664" x1="34.351" x2="332.645" y1="-72.169" y2="598.456" gradientTransform="matrix(0.14062407,0,0,0.13943081,-107.49937,17.211148)" gradientUnits="userSpaceOnUse" xlink:href="#linearGradient619"/>
  <linearGradient id="linearGradient623" x1="271.992" x2="412.395" y1="72.341" y2="430.215" gradientTransform="matrix(0.12170906,0,0,0.22862363,3.1690887,-3.5880613)" gradientUnits="userSpaceOnUse" xlink:href="#linearGradient624"/>
  <linearGradient id="linearGradient624">
   <stop style="stop-color:#b9e5ff;stop-opacity:0.419643" id="stop625" offset="0"/>
   <stop style="stop-color:#ffffff" id="stop626" offset="1"/>
  </linearGradient>
  <linearGradient id="linearGradient581" x1="580.372" x2="645.189" y1="232.475" y2="284.796" gradientTransform="matrix(0.13817266,0,0,0.20138259,-119.60607,-10.207252)" gradientUnits="userSpaceOnUse" xlink:href="#linearGradient578"/>
  <linearGradient id="linearGradient578">
   <stop style="stop-color:#fff2bc" id="stop579" offset="0"/>
   <stop style="stop-color:#83560b" id="stop580" offset="1"/>
  </linearGradient>
  <linearGradient id="linearGradient590" x1="779.717" x2="908.448" y1="160.625" y2="264.661" gradientTransform="matrix(0.1253909,0,0,0.22191058,-119.60607,-10.207252)" gradientUnits="userSpaceOnUse" xlink:href="#linearGradient593"/>
  <linearGradient id="linearGradient593">
   <stop style="stop-color:#fff9db;stop-opacity:0.732143" id="stop594" offset="0"/>
   <stop style="stop-color:#2c2c2c" id="stop595" offset="1"/>
  </linearGradient>
  <linearGradient id="linearGradient2290" x1="1.908" x2="64.345" y1="175.188" y2="277.924" gradientUnits="userSpaceOnUse" xlink:href="#linearGradient619"/>
 </defs>
 <g id="layer1" transform="translate(6.19e-5,-173)">
  <g id="layer9">
   <path d="M 123.99993,237 A 59.999995,59.999995 0 0 1 63.999945,297 59.999995,59.999995 0 0 1 3.9999381,237 59.999995,59.999995 0 0 1 63.999945,177.00001 59.999995,59.999995 0 0 1 123.99993,237 Z" style="fill:#deddda"/>
   <rect style="fill:#d5d3cf" width="112" height="114" x="8" y="179" rx="56" ry="56"/>
   <path style="fill:#f6f5f4" d="M 123.99993,235 A 59.999995,59.999995 0 0 1 63.999945,294.99999 59.999995,59.999995 0 0 1 3.9999381,235 59.999995,59.999995 0 0 1 63.999945,175 59.999995,59.999995 0 0 1 123.99993,235 Z"/>
   <circle style="fill:url(#linearGradient2290)" cx="64" cy="235" r="54"/>
   <g style="fill:#ffffff;fill-opacity:0.85100002" transform="matrix(2.6150613,-0.28982902,0.28982902,2.6150613,20.183828,257.95438)">
    <path d="m 29.1,-14.941 c -0.21,-0.21 -0.548,-0.219 -0.768,-0.02 -1.137,1.021 -7.112,6.208 -13.149,8.04 l -0.065,0.02 c -0.157,0.048 -0.285,0.162 -0.35,0.312 -0.065,0.151 -0.061,0.322 0.011,0.469 l 0.03,0.061 c 0,10e-5 1e-4,0.002 1e-4,0.002 0.021,0.043 0.891,1.86 1,4.421 0.07,1.592 -0.161,3.122 -0.684,4.551 -0.187,0.015 -0.37,0.093 -0.513,0.236 -0.319,0.319 -0.319,0.835 0,1.154 0.319,0.319 0.835,0.319 1.154,0 0.184,-0.184 0.261,-0.435 0.232,-0.674 l 5.849,-5.849 c 0.146,-0.146 0.2,-0.36 0.139,-0.557 -0.207,-0.68 -0.022,-1.415 0.482,-1.919 0.364,-0.364 0.847,-0.564 1.362,-0.564 0.515,0 0.999,0.2 1.362,0.564 0.364,0.364 0.564,0.847 0.564,1.362 0,0.514 -0.2,0.998 -0.564,1.362 -0.364,0.364 -0.847,0.564 -1.361,0.564 -0.191,0 -0.379,-0.028 -0.559,-0.082 -0.197,-0.06 -0.411,-0.006 -0.557,0.139 L 16.8671,4.5 c -0.24,-0.029 -0.491,0.048 -0.675,0.232 -0.319,0.319 -0.318,0.835 0,1.154 0.319,0.319 0.835,0.319 1.154,0 0.143,-0.143 0.221,-0.326 0.236,-0.513 1.26,-0.462 2.601,-0.696 3.988,-0.696 0.174,0 0.352,0.004 0.529,0.011 2.569,0.106 4.442,0.999 4.459,1.01 l 0.059,0.029 c 0.078,0.038 0.162,0.057 0.246,0.057 0.076,0 0.151,-0.015 0.223,-0.046 0.15,-0.065 0.264,-0.193 0.312,-0.35 l 0.02,-0.065 c 1.834,-6.04 7.02,-12.01 8.04,-13.149 0.198,-0.221 0.189,-0.558 -0.021,-0.768 l -6.344,-6.345"/>
    <path d="M 116.0918 47.828125 A 54 54 0 0 0 116.03125 47.554688 A 54 54 0 0 0 114.33008 42.433594 A 54 54 0 0 0 112.125 37.505859 A 54 54 0 0 0 109.43945 32.824219 A 54 54 0 0 0 106.29883 28.433594 A 54 54 0 0 0 102.73633 24.376953 A 54 54 0 0 0 101.61328 23.332031 C 101.5999 23.333143 101.58956 23.318829 101.57617 23.320312 C 101.18914 23.363207 100.83428 23.55893 100.58984 23.861328 L 94.134766 31.925781 C 93.627865 32.559047 93.730015 33.485287 94.363281 33.992188 L 113.21094 49.074219 C 113.51595 49.318368 113.90399 49.431567 114.29102 49.388672 C 114.67804 49.345777 115.03319 49.150717 115.27734 48.845703 L 116.0918 47.828125 z" transform="matrix(0.37776002,0.0418674,-0.0418674,0.37776002,-4.0678477,-32.937415)"/>
   </g>
   <path d="m 64.03349,180.88254 a 54,54 0 0 0 -54,54 54,54 0 0 0 0.0415,1.1709 54,54 0 0 1 53.9585,-53.1709 54,54 0 0 1 53.9585,52.82813 54,54 0 0 0 0.0415,-0.82813 54,54 0 0 0 -54.00001,-54 z" style="opacity:0.1"/>
  </g>
 </g>
 <path style="fill:url(#linearGradient623);fill-opacity:0.75;fill-rule:evenodd" d="m 56.227848,100.67519 c 0,0 -14.571354,-22.478052 -3.261554,-45.189332 8.988557,-18.25645 11.778289,-35.06542 4.467374,-46.9581089 -12.984023,1.5775099 -24.286961,8.0451299 -29.887201,13.5681489 -8.482918,8.0575 -12.541958,16.50477 -14.379968,22.40977 2.45068,29.11777 43.265571,56.780382 43.061349,56.169522 z"/>
</svg>
